src/assets/images/icon-mail.svg

<svg width="24" height="24" viewBox="0 0 24 24" fill="none" xmlns="http://www.w3.org/2000/svg">
<path d="M7.28918 4.90749C10.4238 4.635 13.5762 4.635 16.7108 4.90749L18.2211 5.03877C19.2264 5.12617 20.0875 5.72584 20.5337 6.58361C20.5907 6.69335 20.5479 6.82621 20.4428 6.89132L14.1768 10.7702C12.833 11.6022 11.1384 11.6196 9.77772 10.8156L3.46989 7.0882C3.36798 7.02798 3.3212 6.90402 3.36713 6.79492C3.77529 5.82536 4.69292 5.13318 5.77895 5.03877L7.28918 4.90749Z" fill="white"/>
<path d="M3.362 8.76676C3.20603 8.6746 3.00703 8.77377 2.98885 8.95402C2.73512 11.4697 2.79653 14.0091 3.17308 16.5132C3.3716 17.8333 4.44901 18.8454 5.77895 18.961L7.28918 19.0923C10.4238 19.3647 13.5762 19.3647 16.7108 19.0923L18.2211 18.961C19.551 18.8454 20.6284 17.8333 20.8269 16.5132C21.2145 13.9361 21.2682 11.3216 20.9882 8.73415C20.9685 8.55264 20.7662 8.45529 20.6109 8.55139L14.9664 12.0456C13.1482 13.1712 10.8556 13.1948 9.01462 12.1069L3.362 8.76676Z" fill="white"/>
</svg>

<svg width="24" height="24" fill="none" xmlns="http://www.w3.org/2000/svg"><path d="M7.29 4.907a54.396 54.396 0 0 1 9.42 0l1.511.132a2.889 2.889 0 0 1 2.313 1.545.236.236 0 0 1-.091.307l-6.266 3.88a4.25 4.25 0 0 1-4.4.045L3.47 7.088a.236.236 0 0 1-.103-.293A2.889 2.889 0 0 1 5.78 5.039l1.51-.132Z" fill="#fff"/><path d="M3.362 8.767a.248.248 0 0 0-.373.187 30.352 30.352 0 0 0 .184 7.56A2.888 2.888 0 0 0 5.78 18.96l1.51.131c3.135.273 6.287.273 9.422 0l1.51-.131a2.888 2.888 0 0 0 2.606-2.448 30.35 30.35 0 0 0 .161-7.779.248.248 0 0 0-.377-.183l-5.645 3.495a5.75 5.75 0 0 1-5.951.06l-5.653-3.34Z" fill="#fff"/></svg>
